apps/ui-icons/svgs/send.svg

<svg width="24" height="24" viewBox="0 0 24 24" fill="none" xmlns="http://www.w3.org/2000/svg">
<g id="send">
<path id="icon" fill-rule="evenodd" clip-rule="evenodd" d="M12.0126 21.3889L9.34879 14.6715L2.63138 12.0077C1.78274 11.6711 1.79176 10.4669 2.64535 10.1431L18.6633 4.06731C19.4694 3.76156 20.2587 4.55089 19.953 5.35696L13.8772 21.3749C13.5534 22.2285 12.3491 22.2375 12.0126 21.3889ZM8.94431 12.3596L13.0355 10.314C13.4652 10.0991 13.9212 10.555 13.7063 10.9848L11.6607 15.076L12.9215 18.2552L17.2948 6.72543L5.76503 11.0988L8.94431 12.3596Z" fill="#171D26"/>
</g>
</svg>

<svg xmlns="http://www.w3.org/2000/svg" width="24" height="24" fill="none" viewBox="0 0 24 24">
  <path fill="#171D26" fill-rule="evenodd" d="m12.013 21.389-2.664-6.717-6.718-2.664c-.848-.337-.84-1.541.014-1.865l16.018-6.076c.806-.305 1.596.484 1.29 1.29l-6.076 16.018c-.324.854-1.528.863-1.864.014Zm-3.069-9.03 4.091-2.045a.5.5 0 0 1 .671.67l-2.045 4.092 1.26 3.18 4.374-11.53-11.53 4.373 3.18 1.26Z" clip-rule="evenodd"/>
</svg>
